X: 2
T: Lady Helen Wedderburn
R: reel
M: 4/4
L: 1/8
K: Dmix
G|FAAB AdAG|FAAB {c}d2 dA|FAAB AdAF|EET=cE {F}G2G:|
g|fdad fdda|fdad {f}g2 (gb)|fdad bdad|eebe {f}g2 (gb)|
fdad fdda|fdad gbag|fdec {c}dBAF|EE=cE {F}G2 G||

